production/_assets/svg/commits.svg

<?xml version="1.0" encoding="UTF-8" standalone="no"?>
<svg width="16px" height="16px" viewBox="0 0 16 16" version="1.1" xmlns="http://www.w3.org/2000/svg" xmlns:xlink="http://www.w3.org/1999/xlink">
    <!-- Generator: Sketch 3.8.3 (29802) - http://www.bohemiancoding.com/sketch -->
    <title>Pasted Image 240</title>
    <desc>Created with Sketch.</desc>
    <defs></defs>
    <g id="Page-1" stroke="none" stroke-width="1" fill="none" fill-rule="evenodd">
        <path d="M3,8 C3,5.951 4.236,4.194 6,3.422 L6,0 L1,0 C0.448,0 0,0.448 0,1 L0,15 C0,15.552 0.448,16 1,16 L6,16 L6,12.578 C4.236,11.806 3,10.049 3,8 M7,12.899 L7,16 L9,16 L9,12.899 C8.677,12.965 8.343,13 8,13 C7.657,13 7.323,12.965 7,12.899 M15,0 L10,0 L10,3.422 C11.764,4.194 13,5.951 13,8 C13,10.049 11.764,11.806 10,12.578 L10,16 L15,16 C15.552,16 16,15.552 16,15 L16,1 C16,0.448 15.552,0 15,0 M10,8 C10,9.105 9.105,10 8,10 C6.895,10 6,9.105 6,8 C6,6.895 6.895,6 8,6 C9.105,6 10,6.895 10,8 M4,8 C4,10.209 5.791,12 8,12 C10.209,12 12,10.209 12,8 C12,5.791 10.209,4 8,4 C5.791,4 4,5.791 4,8 M9,3.101 L9,0 L7,0 L7,3.101 C7.323,3.035 7.657,3 8,3 C8.343,3 8.677,3.035 9,3.101" id="Pasted-Image-240" fill="#7E7D7D"></path>
    </g>
</svg>

<svg xmlns="http://www.w3.org/2000/svg" viewBox="0 0 16 16" enable-background="new 0 0 16 16"><path d="M3,8c0-2,1.2-3.8,3-4.6V0H1C0.4,0,0,0.4,0,1v14c0,0.6,0.4,1,1,1h5v-3.4C4.2,11.8,3,10,3,8"/><path d="m7 12.9v3.1h2v-3.1c-.3.1-.7.1-1 .1s-.7 0-1-.1"/><path d="m15 0h-5v3.4c1.8.8 3 2.6 3 4.6s-1.2 3.8-3 4.6v3.4h5c.6 0 1-.4 1-1v-14c0-.6-.4-1-1-1"/><path d="m8 4c-2.2 0-4 1.8-4 4s1.8 4 4 4 4-1.8 4-4-1.8-4-4-4m0 6c-1.1 0-2-.9-2-2s.9-2 2-2 2 .9 2 2-.9 2-2 2"/><path d="M9,3.1V0H7v3.1C7.3,3,7.7,3,8,3S8.7,3,9,3.1"/></svg>
